!!!OTL: 429b. Tritt zu!
!!!ODT: 1880
!!!ARE: Europa, Mitteleuropa, Deutschland, Ober - Hessen
!!!SCT: E0429A
!!!TXL: @@DE
!!!YEM: Copyright 1995, estate of Helmut Schaffrath.
**kern	**text
*ICvox	*
*M4/4	*
*met(c)	*
*k[f#]	*
*G:	*
!LO:TX:a:t=Aus Oberheſſen, 1880.	!
{4d	Wenn
=1	=1
4g	al-
4g	-le
8gL	Bäch-
8f#J	.
4e	-lein
=2	=2
(4d	flie-
8gL	.
8bJ)	.
4a	-ßen
4r}	.
=3	=3
{8b	ſo
8b	ſoll
4b	man
2a	trin-
=4	=4
2g	-ken.
4r}	.
{8gL	Wenn
8aJ	.
=5	=5
4b	ich
8ccL	mein
8eeJ	.
4dd	Schatʒ
4b	nicht
=6	=6
4a	ru-
4b/	-fen
4cc	darf,
4r}	.
=7	=7
{2b	ju
4dd	ja
4b	nicht
=8	=8
4a	ru-
4g	-ſen
2a}	darf,
=9	=9
{8b	thu
8b	ich
4b	ihm
2a	win-
=10	=10
2g	-ken.
4r}	.
==	==
!!!AGN: Liebes - Lied
!!!ONB: ESAC (Essen Associative Code) Database: ERK1
!!!AMT: simple quadruple
!!!AIN: vox
!!!EED: Helmut Schaffrath
!!!EEV: 1.0
!!!GTL: Liebeslieder [Alte (aus dem 13. bis 17. Jahrh.) mit ihrem jungen Nachwuchs]
!!!URL-scan: https://rosdok.uni-rostock.de/mcrviewer/recordIdentifier/rosdok_ppn745177662/iview2/phys_0252.iview2?x=-778.7160746633431&y=1588.4636847797083&scale=0.3980252647138593&rotation=0&layout=singlePageLayout
!!!ENC: Anna Maria Matuszewska
!!!EEV: 2024/09/12
*-	*-
